icons/svg/power/generator_nuclear.svg

<?xml version="1.0" encoding="UTF-8" standalone="no"?>
<!-- Created with Inkscape (http://www.inkscape.org/) -->

<svg
   xmlns:dc="http://purl.org/dc/elements/1.1/"
   xmlns:cc="http://creativecommons.org/ns#"
   xmlns:rdf="http://www.w3.org/1999/02/22-rdf-syntax-ns#"
   xmlns:svg="http://www.w3.org/2000/svg"
   xmlns="http://www.w3.org/2000/svg"
   xmlns:sodipodi="http://sodipodi.sourceforge.net/DTD/sodipodi-0.dtd"
   xmlns:inkscape="http://www.inkscape.org/namespaces/inkscape"
   version="1.0"
   width="580"
   height="580"
   id="svg2"
   sodipodi:version="0.32"
   inkscape:version="0.48.4 r9939"
   sodipodi:docname="station_nuclear.svg"
   inkscape:output_extension="org.inkscape.output.svg.inkscape">
  <metadata
     id="metadata10">
    <rdf:RDF>
      <cc:Work
         rdf:about="">
        <dc:format>image/svg+xml</dc:format>
        <dc:type
           rdf:resource="http://purl.org/dc/dcmitype/StillImage" />
        <cc:license
           rdf:resource="http://web.resource.org/cc/PublicDomain" />
        <dc:language>en</dc:language>
        <dc:title />
      </cc:Work>
    </rdf:RDF>
  </metadata>
  <sodipodi:namedview
     inkscape:window-height="1004"
     inkscape:window-width="1920"
     inkscape:pageshadow="2"
     inkscape:pageopacity="0.0"
     guidetolerance="10.0"
     gridtolerance="10.0"
     objecttolerance="10.0"
     borderopacity="1.0"
     bordercolor="#666666"
     pagecolor="#ffffff"
     id="base"
     showgrid="false"
     inkscape:zoom="1"
     inkscape:cx="453.46488"
     inkscape:cy="337.42662"
     inkscape:window-x="1680"
     inkscape:window-y="0"
     inkscape:current-layer="svg2"
     inkscape:window-maximized="1"
     inkscape:object-paths="true"
     inkscape:snap-object-midpoints="true" />
  <defs
     id="defs4">
    <inkscape:perspective
       sodipodi:type="inkscape:persp3d"
       inkscape:vp_x="0 : 290 : 1"
       inkscape:vp_y="0 : 1000 : 0"
       inkscape:vp_z="580 : 290 : 1"
       inkscape:persp3d-origin="290 : 193.33333 : 1"
       id="perspective12" />
    <style
       type="text/css"
       id="style6">
   
    .fil0 {fill:#EF7900}
   
  </style>
    <inkscape:perspective
       id="perspective6807"
       inkscape:persp3d-origin="29.116032 : 19.410688 : 1"
       inkscape:vp_z="58.232063 : 29.116032 : 1"
       inkscape:vp_y="0 : 1000 : 0"
       inkscape:vp_x="0 : 29.116032 : 1"
       sodipodi:type="inkscape:persp3d" />
    <inkscape:perspective
       id="perspective6954"
       inkscape:persp3d-origin="290 : 193.33333 : 1"
       inkscape:vp_z="580 : 290 : 1"
       inkscape:vp_y="0 : 1000 : 0"
       inkscape:vp_x="0 : 290 : 1"
       sodipodi:type="inkscape:persp3d" />
    <inkscape:perspective
       id="perspective2541"
       inkscape:persp3d-origin="240 : 160 : 1"
       inkscape:vp_z="480 : 240 : 1"
       inkscape:vp_y="0 : 1000 : 0"
       inkscape:vp_x="0 : 240 : 1"
       sodipodi:type="inkscape:persp3d" />
    <inkscape:perspective
       id="perspective2750"
       inkscape:persp3d-origin="215 : 143.33333 : 1"
       inkscape:vp_z="430 : 215 : 1"
       inkscape:vp_y="0 : 1000 : 0"
       inkscape:vp_x="0 : 215 : 1"
       sodipodi:type="inkscape:persp3d" />
    <inkscape:perspective
       id="perspective3730"
       inkscape:persp3d-origin="88.929146 : 101.19778 : 1"
       inkscape:vp_z="177.85829 : 151.79668 : 1"
       inkscape:vp_y="0 : 1000 : 0"
       inkscape:vp_x="0 : 151.79668 : 1"
       sodipodi:type="inkscape:persp3d" />
  </defs>
  <g
     id="g1327">
    <path
       d="M 66.275,1.768 C 24.94,1.768 1.704,23.139 1.704,66.804 L 1.704,516.927 C 1.704,557.771 22.598,579.156 63.896,579.156 L 515.92,579.156 C 557.227,579.156 578.149,558.84 578.149,516.927 L 578.149,66.804 C 578.149,24.203 557.227,1.768 514.627,1.768 C 514.624,1.768 66.133,1.625 66.275,1.768 z"
       style="fill:#111111;stroke:#eeeeee;stroke-width:3.40799999"
       id="path1329" />
  </g>
  <path
     inkscape:connector-curvature="0"
     d="m 406.34217,54.080339 c -19.725,-10.95833 -41.64167,-19.725 -70.13333,-19.725 -50.40834,0 -81.09167,37.25833 -96.43334,61.36667 -83.28333,-6.575 -111.775,70.133331 -111.775,70.133331 59.175,-63.55833 127.11667,-39.45 127.11667,-39.45 0,0 17.53333,-43.833331 63.55833,-54.791671 46.025,-10.95833 87.66667,15.34167 87.66667,15.34167 0,0 54.79167,-46.025 146.84167,-30.68333 0,0 -67.94167,-46.025 -146.84167,-2.19167 z"
     id="path5"
     style="fill:#ffffff;fill-opacity:1;stroke:none" />
  <path
     inkscape:connector-curvature="0"
     d="m 338.4005,308.27201 0,-109.58334 -219.16666,0 0,109.58334 c 0,0 -87.666669,206.01666 -87.666669,208.20833 0,17.53333 87.666669,32.875 197.249999,32.875 109.58333,0 197.25,-15.34167 197.25,-32.875 0,-2.19167 -87.66667,-208.20833 -87.66667,-208.20833 z m -108.87622,84.34435 c 12.22429,0 21.3925,9.16821 21.3925,21.39249 0,12.22429 -9.16821,21.39251 -21.3925,21.39251 -12.22429,0 -21.39251,-9.16822 -21.39251,-21.39251 0,-12.22428 9.16822,-21.39249 21.39251,-21.39249 z m -58.06537,-82.51394 42.78501,73.34572 c -9.16821,6.11214 -15.28036,18.33643 -15.28036,30.56071 l -88.62608,0 c 0,-45.84108 24.44857,-85.57 61.12143,-103.90643 z m 58.06537,223.09322 c -21.39251,0 -42.785,-6.11214 -58.06537,-15.28035 l 42.78501,-76.4018 c 3.05607,3.05608 9.16822,6.11216 15.28036,6.11216 6.11214,0 12.22429,-3.05608 15.28035,-6.11216 l 42.78501,76.4018 c -15.28036,12.22429 -36.67286,15.28035 -58.06536,15.28035 z m 33.61678,-119.18679 c 0,-12.22428 -6.11214,-24.44857 -15.28035,-30.56071 l 42.78499,-76.40179 c 36.67286,21.3925 58.06537,61.12142 58.06537,103.90644 l -85.57001,0 z"
     id="path7"
     style="fill:#ffffff;fill-opacity:1;stroke:none"
     sodipodi:nodetypes="ccccssscssssscccccsccsccscccccc" />
  <path
     inkscape:connector-curvature="0"
     d="m 410.7255,155.43034 c 92.05,52.6 138.075,-50.40833 138.075,-50.40833 0,0 -21.91666,138.075 -142.45833,70.13333 -41.64167,-21.91667 -81.09167,-26.3 -111.775,2.19167 28.49167,-48.21667 76.70833,-46.025 116.15833,-21.91667 z"
     id="path9"
     style="fill:#ffffff;fill-opacity:1;stroke:none" />
  <path
     style="color:#000000;fill:#ffffff;fill-opacity:1;fill-rule:nonzero;stroke:none;stroke-width:0;marker:none;visibility:visible;display:inline;overflow:visible;enable-background:accumulate"
     d="m 488.10849,229.21771 -61.16197,122.54388 61.82196,0 -51.89022,113.02071 118.17519,-148.7247 -66.78783,0 52.70739,-86.83989 z"
     id="rect3011"
     inkscape:connector-curvature="0"
     sodipodi:nodetypes="cccccccc" />
</svg>

<svg width="580" height="580" viewBox="0 0 580 580" fill="none" xmlns="http://www.w3.org/2000/svg">
<g clip-path="url(#clip0)">
<path d="M66.2751 1.76802C24.9401 1.76802 1.7041 23.139 1.7041 66.804V516.927C1.7041 557.771 22.5981 579.156 63.8961 579.156H515.92C557.227 579.156 578.149 558.84 578.149 516.927V66.804C578.149 24.203 557.227 1.76802 514.627 1.76802C514.624 1.76802 66.1331 1.62502 66.2751 1.76802Z" fill="#111111" stroke="#EEEEEE" stroke-width="3.408"/>
<path d="M406.342 54.0803C386.617 43.122 364.7 34.3553 336.209 34.3553C285.8 34.3553 255.117 71.6137 239.775 95.722C156.492 89.147 128 165.855 128 165.855C187.175 102.297 255.117 126.405 255.117 126.405C255.117 126.405 272.65 82.572 318.675 71.6137C364.7 60.6553 406.342 86.9553 406.342 86.9553C406.342 86.9553 461.134 40.9303 553.184 56.272C553.184 56.272 485.242 10.247 406.342 54.0803V54.0803Z" fill="white"/>
<path d="M338.4 308.272V198.689H119.234V308.272C119.234 308.272 31.5671 514.289 31.5671 516.48C31.5671 534.014 119.234 549.355 228.817 549.355C338.4 549.355 426.067 534.014 426.067 516.48C426.067 514.289 338.4 308.272 338.4 308.272V308.272ZM229.524 392.616C241.749 392.616 250.917 401.785 250.917 414.009C250.917 426.233 241.749 435.401 229.524 435.401C217.3 435.401 208.132 426.233 208.132 414.009C208.132 401.785 217.3 392.616 229.524 392.616ZM171.459 310.102L214.244 383.448C205.076 389.56 198.964 401.785 198.964 414.009H110.337C110.337 368.168 134.786 328.439 171.459 310.102ZM229.524 533.196C208.132 533.196 186.739 527.084 171.459 517.915L214.244 441.514C217.3 444.57 223.412 447.626 229.524 447.626C235.636 447.626 241.749 444.57 244.805 441.514L287.59 517.915C272.309 530.14 250.917 533.196 229.524 533.196ZM263.141 414.009C263.141 401.785 257.029 389.56 247.861 383.448L290.646 307.046C327.319 328.439 348.711 368.168 348.711 410.953H263.141V414.009Z" fill="white"/>
<path d="M410.725 155.43C502.775 208.03 548.8 105.022 548.8 105.022C548.8 105.022 526.884 243.097 406.342 175.155C364.7 153.239 325.25 148.855 294.567 177.347C323.059 129.13 371.275 131.322 410.725 155.43V155.43Z" fill="white"/>
<path d="M488.108 229.218L426.947 351.762H488.768L436.878 464.782L555.053 316.058H488.266L540.973 229.218H488.108Z" fill="white"/>
</g>
<defs>
<clipPath id="clip0">
<path d="M0 0H580V580H0V0Z" fill="white"/>
</clipPath>
</defs>
</svg>
